icons/streamlit-light.svg

<svg width="256" height="256" viewBox="0 0 256 256" fill="none" xmlns="http://www.w3.org/2000/svg">
<path d="M196 0H60C26.8629 0 0 26.8629 0 60V196C0 229.137 26.8629 256 60 256H196C229.137 256 256 229.137 256 196V60C256 26.8629 229.137 0 196 0Z" fill="#F4F2ED"/>
<path d="M127.631 143.259L88.1359 122.382L19.5788 86.1481C19.5162 86.0856 19.3911 86.0856 19.3285 86.0856C16.8253 84.8966 14.2595 87.3998 15.1982 89.903L50.1307 178.999L50.1369 179.018C50.1745 179.106 50.2058 179.193 50.2433 179.281C51.6764 182.604 54.8055 184.656 58.2099 185.463C58.4977 185.527 58.7036 185.583 59.0493 185.652C59.3933 185.729 59.8745 185.833 60.2875 185.864C60.3564 185.87 60.4189 185.87 60.4878 185.876H60.5379C60.5879 185.883 60.638 185.883 60.6881 185.889H60.7569C60.8007 185.895 60.8507 185.895 60.8946 185.895H60.9759C61.026 185.902 61.076 185.902 61.1261 185.902C105.367 190.725 150.001 190.725 194.242 185.902C194.773 185.902 195.293 185.876 195.793 185.827C195.956 185.808 196.112 185.789 196.269 185.771C196.288 185.764 196.313 185.764 196.332 185.758C196.438 185.745 196.544 185.726 196.651 185.707C196.807 185.689 196.964 185.658 197.12 185.626C197.433 185.557 197.575 185.508 198 185.361C198.425 185.216 199.13 184.96 199.57 184.748C200.012 184.535 200.318 184.331 200.687 184.1C201.144 183.811 201.579 183.517 202.019 183.187C202.209 183.041 202.339 182.948 202.477 182.816L202.402 182.773L127.631 143.259Z" fill="#FF4B4B"/>
<path d="M235.796 86.1487H235.734L167.151 122.383L205.275 179.162L240.12 89.9035V89.7784C240.996 87.1499 238.306 84.7719 235.796 86.1487Z" fill="#7D353B"/>
<path d="M131.286 68.9197C129.533 66.3601 125.716 66.3601 124.026 68.9197L88.1362 122.382L127.631 143.259L202.478 182.816C202.948 182.355 203.325 181.907 203.723 181.433C204.286 180.739 204.812 179.994 205.275 179.162L167.151 122.382L131.286 68.9197Z" fill="#BD4043"/>
</svg>

<svg xmlns="http://www.w3.org/2000/svg" width="256" height="256" fill="none"><path fill="#F4F2ED" d="M196 0H60C26.863 0 0 26.863 0 60v136c0 33.137 26.863 60 60 60h136c33.137 0 60-26.863 60-60V60c0-33.137-26.863-60-60-60"/><path fill="#FF4B4B" d="m127.631 143.259-39.495-20.877-68.557-36.234c-.063-.062-.188-.062-.25-.062-2.504-1.19-5.07 1.314-4.13 3.817l34.932 89.096.006.019c.038.088.069.175.106.263 1.433 3.323 4.563 5.375 7.967 6.182.288.064.494.12.84.189.343.077.825.181 1.238.212.068.006.13.006.2.012h.05c.05.007.1.007.15.013h.069c.044.006.094.006.138.006h.08q.076.009.151.007a614 614 0 0 0 133.116 0c.531 0 1.051-.026 1.551-.075l.476-.056c.019-.007.044-.007.063-.013q.159-.021.319-.051c.156-.018.313-.049.469-.081.313-.069.455-.118.88-.265.425-.145 1.13-.401 1.57-.613.442-.213.748-.417 1.117-.648.457-.289.892-.583 1.332-.913.19-.146.32-.239.458-.371l-.075-.043z"/><path fill="#7D353B" d="M235.796 86.149h-.062l-68.583 36.234 38.124 56.779 34.845-89.259v-.125c.876-2.628-1.814-5.006-4.324-3.63"/><path fill="#BD4043" d="M131.286 68.92c-1.753-2.56-5.57-2.56-7.26 0l-35.89 53.462 39.495 20.877 74.847 39.557c.47-.461.847-.909 1.245-1.383a16 16 0 0 0 1.552-2.271l-38.124-56.78z"/></svg>
